projects/ccf-eui/src/assets/icons/organ-icons/organ-icon-vasculature-thick.svg

<svg width="64" height="64" viewBox="0 0 64 64" fill="currentColor" xmlns="http://www.w3.org/2000/svg">
<g clip-path="url(#clip0_1795_454)">
<path d="M49.4321 60.1984C50.6818 58.9487 51.0194 57.2603 50.1863 56.4272C49.3532 55.594 47.6648 55.9317 46.4151 57.1814C45.1654 58.4311 44.8277 60.1195 45.6608 60.9526C46.494 61.7858 48.1824 61.4481 49.4321 60.1984Z" />
<path d="M60.5226 42.88C60.0779 42.5336 59.5141 42.3772 58.9545 42.4452C58.3949 42.5132 57.8849 42.7999 57.536 43.2427C56.6782 44.2608 55.6797 45.1515 54.5706 45.888C54.1688 46.1063 53.7253 46.2372 53.2693 46.272C53.6773 45.7587 54.048 45.2169 54.3786 44.6507C56.7941 39.6714 57.7271 34.1027 57.0666 28.608C56.9903 28.0422 56.6922 27.5299 56.2382 27.1839C55.7841 26.8378 55.2111 26.6863 54.6453 26.7627C54.0795 26.8391 53.5672 27.1371 53.2212 27.5912C52.8751 28.0452 52.7236 28.6182 52.8 29.184C53.2946 33.4937 52.6701 37.858 50.9866 41.856C50.1523 40.8077 49.4368 39.6701 48.8533 38.464C48.3634 36.4768 48.1764 34.427 48.2986 32.384C48.2986 31.8182 48.0739 31.2756 47.6738 30.8755C47.2737 30.4754 46.7311 30.2507 46.1653 30.2507C45.6175 30.25 45.0905 30.46 44.6933 30.8373C44.2962 31.2146 44.0594 31.7302 44.032 32.2773C43.8845 34.9092 44.1729 37.5474 44.8853 40.0853C45.78 42.0176 46.9123 43.8307 48.256 45.4827C47.1466 46.5707 45.9093 47.616 44.8 48.5333C44.6856 47.9488 44.536 47.3718 44.352 46.8053C44.2304 44.891 43.9737 42.9876 43.584 41.1093C42.8433 38.6525 41.5848 36.3829 39.8933 34.4533C38.8513 33.1863 37.9567 31.805 37.2266 30.336C39.5393 29.5501 41.6563 28.277 43.4346 26.6027C45.678 23.7626 47.3711 20.5285 48.4266 17.0667C48.5964 16.5263 48.5445 15.9407 48.2825 15.4386C48.0204 14.9365 47.5696 14.5591 47.0293 14.3893C46.489 14.2196 45.9033 14.2715 45.4012 14.5335C44.8992 14.7956 44.5217 15.2463 44.352 15.7867C43.5243 18.5449 42.2329 21.142 40.5333 23.4667C39.4764 24.4774 38.2291 25.2678 36.864 25.792C37.8 20.0409 39.3226 14.4008 41.408 8.96C41.5783 8.5638 41.6668 8.13725 41.6681 7.70599C41.6694 7.27472 41.5835 6.84764 41.4156 6.45041C41.2477 6.05317 41.0013 5.69396 40.691 5.39438C40.3808 5.09479 40.0132 4.861 39.6104 4.70706C39.2075 4.55311 38.7777 4.48218 38.3468 4.49853C37.9158 4.51488 37.4926 4.61818 37.1026 4.80221C36.7126 4.98624 36.3638 5.24721 36.0771 5.56944C35.7905 5.89167 35.572 6.26852 35.4346 6.67734C35.2 7.31734 34.2186 9.94134 33.1733 13.312C32.3663 12.0868 31.4677 10.9244 30.4853 9.83467C28.3325 7.71074 25.6751 6.1691 22.7626 5.35467C22.2138 5.21322 21.6313 5.29558 21.1432 5.58364C20.6551 5.8717 20.3014 6.34185 20.16 6.89067C20.0185 7.43949 20.1009 8.02202 20.3889 8.51012C20.677 8.99821 21.1472 9.35189 21.696 9.49334C23.7978 10.0787 25.7242 11.17 27.3066 12.672L28.2026 13.7387C26.5956 14.3116 24.9143 14.6494 23.2106 14.7413C20.9505 14.3738 18.7795 13.5851 16.8106 12.416C16.5684 12.2741 16.3006 12.1813 16.0225 12.1431C15.7443 12.1049 15.4614 12.122 15.1899 12.1933C14.9184 12.2647 14.6636 12.3889 14.4402 12.5589C14.2168 12.7289 14.0291 12.9413 13.888 13.184C13.6081 13.6713 13.5317 14.2493 13.6755 14.7926C13.8193 15.3358 14.1716 15.8004 14.656 16.0853C17.2494 17.6784 20.1638 18.6766 23.1893 19.008C25.6664 18.8692 28.1066 18.3438 30.4213 17.4507H30.5493C30.8792 18.0798 31.1712 18.7281 31.424 19.392C30.6603 22.2459 30.2589 25.1845 30.2293 28.1387C27.4212 26.7993 24.5106 25.6864 21.5253 24.8107C16.9939 23.4849 12.258 23.0004 7.55198 23.3813C6.98618 23.4521 6.47166 23.7447 6.12159 24.1947C5.77152 24.6448 5.61459 25.2155 5.68531 25.7813C5.75604 26.3471 6.04862 26.8617 6.49871 27.2117C6.9488 27.5618 7.51952 27.7187 8.08531 27.648C12.2194 27.3284 16.377 27.7695 20.352 28.9493C21.0986 29.1627 21.8026 29.376 22.4853 29.6107C18.8596 29.7696 15.3284 30.8172 12.2026 32.6613C11.782 32.9963 11.5033 33.4777 11.4224 34.0093C11.3415 34.541 11.4643 35.0835 11.7663 35.5284C12.0683 35.9733 12.5272 36.2878 13.0512 36.4089C13.5751 36.5299 14.1254 36.4487 14.592 36.1813C18.5094 34.0854 22.9956 33.3004 27.392 33.9413C30.5935 34.5331 33.4435 36.3364 35.3493 38.976C36.2743 40.0217 36.9976 41.2296 37.4826 42.5387C37.8094 44.1999 38.0161 45.8824 38.1013 47.5733C38.1187 50.0014 38.6191 52.4018 39.5733 54.6347C40.7904 56.5908 42.3431 58.3168 44.16 59.7333C44.173 59.1068 44.3119 58.4893 44.5684 57.9176C44.825 57.3458 45.1939 56.8316 45.6533 56.4053C46.3832 55.6359 47.34 55.1201 48.384 54.9333C47.6259 54.2708 46.9132 53.5581 46.2506 52.8C47.0186 52.224 48.064 51.4133 49.1946 50.432C50.064 50.5548 50.9407 50.6189 51.8186 50.624C53.6262 50.7098 55.4218 50.2886 57.0026 49.408C58.4987 48.4125 59.8425 47.2053 60.992 45.824C61.3136 45.3692 61.4446 44.8066 61.3569 44.2564C61.2692 43.7063 60.9698 43.2123 60.5226 42.88Z" />
</g>
<defs>
<clipPath id="clip0_1795_454">
<rect width="64" height="64" />
</clipPath>
</defs>
</svg>

<svg xmlns="http://www.w3.org/2000/svg" width="64" height="64" fill="currentColor" viewBox="0 0 64 64"><g clip-path="url(#a)"><path d="M49.432 60.198c1.25-1.25 1.587-2.938.754-3.77-.833-.834-2.521-.496-3.77.753s-1.588 2.939-.755 3.772 2.521.495 3.771-.755"/><path d="M60.523 42.88a2.133 2.133 0 0 0-2.987.363 14 14 0 0 1-2.965 2.645c-.402.218-.846.35-1.302.384q.613-.77 1.11-1.621a28.86 28.86 0 0 0 2.688-16.043 2.152 2.152 0 1 0-4.267.576c.495 4.31-.13 8.674-1.813 12.672a18 18 0 0 1-2.134-3.392 20.3 20.3 0 0 1-.554-6.08 2.133 2.133 0 0 0-3.606-1.547 2.13 2.13 0 0 0-.661 1.44c-.147 2.632.14 5.27.853 7.808a25.6 25.6 0 0 0 3.371 5.398c-1.11 1.088-2.347 2.133-3.456 3.05a15 15 0 0 0-.448-1.728 41 41 0 0 0-.768-5.696c-.74-2.456-2-4.726-3.69-6.656a21.7 21.7 0 0 1-2.667-4.117 17.1 17.1 0 0 0 6.208-3.733 29 29 0 0 0 4.992-9.536 2.135 2.135 0 1 0-4.075-1.28 25.4 25.4 0 0 1-3.819 7.68 11 11 0 0 1-3.669 2.325A85.3 85.3 0 0 1 41.408 8.96a3.2 3.2 0 1 0-5.973-2.283c-.235.64-1.216 3.264-2.262 6.635a29 29 0 0 0-2.688-3.477 17.84 17.84 0 0 0-7.722-4.48 2.137 2.137 0 1 0-1.067 4.138 13.35 13.35 0 0 1 5.61 3.179l.897 1.067c-1.607.573-3.289.91-4.992 1.002a18.3 18.3 0 0 1-6.4-2.325 2.133 2.133 0 0 0-2.923.768 2.134 2.134 0 0 0 .768 2.901 20.6 20.6 0 0 0 8.533 2.923 23.8 23.8 0 0 0 7.232-1.557h.128q.495.944.875 1.941a35.2 35.2 0 0 0-1.195 8.747 58.4 58.4 0 0 0-8.704-3.328 38.7 38.7 0 0 0-13.973-1.43 2.15 2.15 0 0 0 .533 4.267c4.134-.32 8.292.122 12.267 1.301.747.214 1.45.427 2.133.662a22.15 22.15 0 0 0-10.282 3.05 2.134 2.134 0 0 0 2.389 3.52 20.78 20.78 0 0 1 12.8-2.24 12.65 12.65 0 0 1 7.957 5.035 11.3 11.3 0 0 1 2.134 3.563 35 35 0 0 1 .618 5.034 18.3 18.3 0 0 0 1.472 7.062 19.6 19.6 0 0 0 4.587 5.098 4.67 4.67 0 0 1 1.493-3.328 4.97 4.97 0 0 1 2.731-1.472 22.5 22.5 0 0 1-2.133-2.133 53 53 0 0 0 2.944-2.368q1.305.184 2.624.192a9.7 9.7 0 0 0 5.184-1.216 18.6 18.6 0 0 0 3.989-3.584 2.133 2.133 0 0 0-.47-2.944"/></g><defs><clipPath id="a"><path d="M0 0h64v64H0z"/></clipPath></defs></svg>
